X: 26297
T: Memories Of East Clare
R: reel
M: 4/4
K: Ddorian
dc|:.A2 Gc AGGE|CDEC DA, A,/A,/A,|A2 Gc AGGE|CDEG FDdc|
A/c/A Gc .A2 GE|CDEC DA, A,2|~F3 D E2 GE|CDEG FDdc:|
AddA c2 cB|AddA cAGc|A/c/A dA cBcd|ed ~d2 eddc|
AddA c/d/c Bc|AddB cAGc|AddB cBcd|ed d/d/d eaag||
ed d2 ~d3 g|ed ~d2 eaag|ed d2 ~d3 A|~c3 d eaag|
ed d2 ~d3 g|ed ~d2 eaag|egdg edcA|cBcd eddc||

